X:1
T:California -- Hornpipe
R:hornpipe
B:Cole's 1000 Fiddle Tunes
M:2/4
L:1/16
K:F
(ucB)|(vBA).G.F FAcf|"4"edc=B c3ub|\
(vba).g.f efga|(ugf).e.d c2(cB)|
(BA).G.F FAcf|("4"ed).c.=B c2b2|\
("3"a"4"c')"3"a"1"f (gb)ge|f2f2f2:|
|:(uef)|(vge).c.c c2(ef)|(uge).c.c c2(ga)|\
bagf efga|gfed cBAG|
(BA).G.F FAcf|("4"ed)c=B c2b2|\
("3"a"4"c')"3"a"1"f (gb)ge|f2f2f2:|
